src/assets/skills/github.svg

<svg height="100pt" viewBox="0 0 100 100" width="100pt" xmlns="http://www.w3.org/2000/svg"><path d="m100 0h-100v100q37.603 1.328 37.603 0c0-1.187-.04-8.061-.062-12.226-13.91 3.015-16.841-6.71-16.841-6.71-2.275-5.771-5.563-7.312-5.563-7.312-4.528-3.1.35-3.038.35-3.038 5.022.35 7.66 5.15 7.66 5.15 4.459 7.647 11.703 5.438 14.562 4.16.45-3.235 1.738-5.438 3.166-6.688-11.103-1.25-22.775-5.55-22.775-24.709 0-5.459 1.938-9.916 5.147-13.416-.563-1.262-2.25-6.347.437-13.234 0 0 4.188-1.341 13.75 5.125 4-1.113 8.25-1.663 12.5-1.688 4.25.025 8.5.575 12.5 1.688 9.5-6.466 13.688-5.125 13.688-5.125 2.687 6.887 1 11.972.5 13.234 3.187 3.5 5.125 7.96 5.125 13.416 0 19.209-11.688 23.437-22.813 24.666 1.75 1.5 3.375 4.565 3.375 9.25 0 6.69-.062 15.832-.062 17.457q0 1.313 37.753 0z"/></svg>

<?xml version="1.0" encoding="UTF-8" standalone="no"?><!-- Generator: Gravit.io --><svg xmlns="http://www.w3.org/2000/svg" xmlns:xlink="http://www.w3.org/1999/xlink" style="isolation:isolate" viewBox="0 0 100 100" width="100pt" height="100pt"><path d=" M 100 0 L 0 0 L 0 100 Q 37.603 101.328 37.603 100 C 37.603 98.813 37.563 91.939 37.541 87.774 C 23.631 90.789 20.7 81.064 20.7 81.064 C 18.425 75.293 15.137 73.752 15.137 73.752 C 10.609 70.652 15.487 70.714 15.487 70.714 C 20.509 71.064 23.147 75.864 23.147 75.864 C 27.606 83.511 34.85 81.302 37.709 80.024 C 38.159 76.789 39.447 74.586 40.875 73.336 C 29.772 72.086 18.1 67.786 18.1 48.627 C 18.1 43.168 20.038 38.711 23.247 35.211 C 22.684 33.949 20.997 28.864 23.684 21.977 C 23.684 21.977 27.872 20.636 37.434 27.102 C 41.434 25.989 45.684 25.439 49.934 25.414 C 54.184 25.439 58.434 25.989 62.434 27.102 C 71.934 20.636 76.122 21.977 76.122 21.977 C 78.809 28.864 77.122 33.949 76.622 35.211 C 79.809 38.711 81.747 43.171 81.747 48.627 C 81.747 67.836 70.059 72.064 58.934 73.293 C 60.684 74.793 62.309 77.858 62.309 82.543 C 62.309 89.233 62.247 98.375 62.247 100 Q 62.247 101.313 100 100 L 100 0 L 100 0 Z " fill="rgb(0,0,0)"/></svg>
